molo/core/static/images/svgs/check.svg

<?xml version="1.0" encoding="UTF-8" standalone="no"?>
<svg width="21px" height="19px" viewBox="0 0 21 19" version="1.1" xmlns="http://www.w3.org/2000/svg" xmlns:xlink="http://www.w3.org/1999/xlink">
    <!-- Generator: Sketch 43.1 (39012) - http://www.bohemiancoding.com/sketch -->
    <title>icons/check</title>
    <desc>Created with Sketch.</desc>
    <defs></defs>
    <g id="Basics" stroke="none" stroke-width="1" fill="none" fill-rule="evenodd">
        <g id="basics/icons" transform="translate(-386.000000, -371.000000)" fill="#0FBFBF">
            <g id="icon" transform="translate(329.000000, 337.000000)">
                <g id="icons/comment-count" transform="translate(55.000000, 32.000000)">
                    <g id="Message" transform="translate(2.000000, 2.000000)">
                        <path d="M14.6494,6.5517 C14.5854,6.5497 13.0314,6.4957 10.3994,6.5527 C6.9084,6.6297 5.7514,6.3807 5.7104,6.3717 C5.2184,6.2477 4.7194,6.5447 4.5914,7.0357 C4.4614,7.5307 4.7584,8.0347 5.2534,8.1637 C5.3634,8.1937 6.3134,8.4177 9.1074,8.4177 C9.5114,8.4177 9.9554,8.4127 10.4404,8.4027 C13.0134,8.3457 14.5674,8.4007 14.5834,8.4017 C15.0524,8.4167 15.5214,8.0207 15.5414,7.5097 C15.5584,6.9997 15.1604,6.5707 14.6494,6.5517" id="Fill-4"></path>
                        <path d="M7.9199,16.7197 C6.5149,16.7197 4.8039,16.4327 3.6029,16.1687 C4.0109,15.8167 4.4239,15.4037 4.6949,14.9587 C4.7469,14.8797 5.1769,14.1677 4.3139,13.5967 C4.0589,13.4267 3.3809,12.9787 2.8619,12.2967 C1.4669,10.4637 1.4999,7.1257 2.9339,5.1537 C4.1219,3.5197 5.9139,1.8497 10.2009,1.8497 C14.2799,1.8497 18.3959,4.2067 18.3959,9.4727 C18.3959,14.4787 13.1339,16.7197 7.9199,16.7197 M10.2009,-0.0003 C6.1849,-0.0003 3.4829,1.2537 1.4379,4.0657 C-0.4611,6.6767 -0.4811,10.9587 1.3909,13.4177 C1.7709,13.9157 2.1949,14.3127 2.5679,14.6127 C2.2779,14.8787 1.9519,15.1307 1.6979,15.3257 C1.1519,15.7477 0.8219,16.0017 0.7839,16.4907 C0.7639,16.7517 0.8629,17.0327 1.0419,17.2227 C1.6039,17.8177 5.7899,18.5697 7.9199,18.5697 C15.2919,18.5697 20.2449,14.9137 20.2449,9.4727 C20.2449,2.9637 15.0389,-0.0003 10.2009,-0.0003" id="Fill-1"></path>
                        <path d="M12.4121,10.3711 C11.8161,10.4631 11.6191,10.4921 9.6951,10.4401 C7.4491,10.3791 6.9921,10.3911 6.5081,10.4031 L6.1721,10.4111 C5.6601,10.4191 5.2531,10.8391 5.2611,11.3501 C5.2681,11.8561 5.6811,12.2611 6.1851,12.2611 L6.1991,12.2611 L6.5571,12.2531 C7.0161,12.2411 7.4481,12.2291 9.6441,12.2901 C10.2771,12.3081 10.7411,12.3151 11.1041,12.3151 C11.8861,12.3151 12.1951,12.2761 12.6931,12.1991 C13.1981,12.1211 13.5451,11.6491 13.4671,11.1441 C13.3891,10.6401 12.9211,10.2891 12.4121,10.3711" id="Fill-6"></path>
                    </g>
                </g>
            </g>
        </g>
    </g>
</svg>

<svg width="21" height="19" viewBox="0 0 21 19" xmlns="http://www.w3.org/2000/svg">
    <title>
        icons/check
    </title>
    <g fill="#0FBFBF" fill-rule="evenodd">
        <path d="M14.65 6.552c-.065-.002-1.619-.056-4.25 0-3.492.078-4.649-.171-4.69-.18a.924.924 0 0 0-.457 1.792c.11.03 1.06.254 3.854.254.404 0 .848-.005 1.333-.015 2.573-.057 4.127-.002 4.143-.001.47.015.938-.381.958-.892a.927.927 0 0 0-.892-.958"/>
        <path d="M7.92 16.72c-1.405 0-3.116-.287-4.317-.551.408-.352.82-.765 1.092-1.21.052-.08.482-.791-.381-1.362-.255-.17-.933-.618-1.452-1.3-1.395-1.833-1.362-5.171.072-7.143C4.122 3.52 5.914 1.85 10.2 1.85c4.079 0 8.195 2.357 8.195 7.623 0 5.006-5.262 7.247-10.476 7.247M10.2 0C6.186 0 3.484 1.254 1.439 4.066c-1.9 2.61-1.92 6.893-.047 9.352.38.498.804.895 1.177 1.195-.29.266-.616.518-.87.713-.546.422-.876.676-.914 1.165a.99.99 0 0 0 .258.732c.562.595 4.748 1.347 6.878 1.347 7.372 0 12.325-3.656 12.325-9.097C20.245 2.963 15.039 0 10.2 0"/>
        <path d="M12.412 10.371c-.596.092-.793.121-2.717.07-2.246-.062-2.703-.05-3.187-.038l-.336.008a.924.924 0 0 0 .013 1.85H6.2l.358-.008c.46-.012.891-.024 3.087.037a52.12 52.12 0 0 0 1.46.025c.782 0 1.091-.039 1.59-.116a.925.925 0 1 0-.282-1.828"/>
    </g>
</svg>
